X:1
T:Schlaf wohl in Gottes Frieden
T:Jakob Heinrich Lützel
T:Schlaf wohl in Gottes Frieden
T:Grablied
T:CPDL - Creative Commons Attribution Non Commercial 3.0
C:Jakob Heinrich Lützel
Z:CPDL - Creative Commons Attribution Non Commercial 3.0
%%score [ 1 2 3 4 ]
L:1/8
Q:1/4=80
M:4/4
K:Ab
V:1 treble nm="Sopran"
V:2 treble nm="Alt"
V:3 treble-8 nm="Tenor"
V:4 bass nm="Bass"
V:1
"^Langsam" E2 | A3!<(! A G2!<)! A2 |!>(! d4!>)! c2 B2 | A3 G!<(! A2 c2!<)! |!>(! B6!>)! | x2 | %6
w: 1. Schlaf|wohl in Got- tes|Frie- den, schlaf|wohl in sanf- ter|Ruh'!||
w: 2.  Du|bist nun ein- ge-|gan- gen ins|ew'- ge Va- ter-|land;||
w: 3.  Ge-|en- det ist dein|Lei- den, da-|hin die trü- be|Zeit;||
 !>!d3 c!<(! B2 B2!<)! |!>(! (e3 d)!>)! c2!<(! e2 | ed!<)! cB!>(! A2 G2!>)! | !fermata!A6 |] %10
w: Kampf und Schmerz hie-|nie- * den deckt|dich _ die _ Er- de|zu.|
w: bei ist al- les|Ban- * gen, du|ruhst _ in _ Got- tes|Hand.|
w: win- ken Him- mels-|freu- * den und|ew'- * ge _ Se- lig-|keit!|
V:2
 E2 | C3!<(! E E2!<)! E2 |!>(! (F2 E2)!>)! E2 E2 | E3 E!<(! E2 A2!<)! |!>(! G6!>)! | E2 | %6
 !>!E3 E!<(! E2 E2!<)! |!>(! E4!>)! E2!<(! _G2 | F2!<)! F2!>(! E2 D2!>)! | !fermata!C6 |] %10
V:3
 E2 | E3!<(! A B2!<)! A2 |!>(! (A2 G2)!>)! A2 G2 | A3 d!<(! c2 e2!<)! |!>(! e6!>)! | A2 | %6
w: 1. Schlaf|wohl in Got- tes|Frie- * den, schlaf|wohl in sanf- ter|Ruh'!|Nach|
w: 2.  Du|bist nun ein- ge-|gan- * gen ins|ew'- ge Va- ter-|land;|vor-|
w: 3.  Ge-|en- det ist dein|Lei- * den, da-|hin die trü- be|Zeit;|dir|
 !>!B3 A!<(! G2 G2!<)! |!>(! (A2 G2)!>)! A2!<(! A2 | A3!<)! d!>(! c2 B2!>)! | !fermata!A6 |] %10
w: Kampf und Schmerz hie-|nie- * den deckt|dich die Er- de|zu.|
w: bei ist al- les|Ban- * gen, du|ruhst in Got- tes|Hand.|
w: win- ken Him- mels-|freu- * den und|ew'- ge Se- lig-|keit!|
V:4
 E,2 | A,,3!<(! C, D,2!<)! C,2 |!>(! B,,4!>)! A,,2 E,D, | C,3 B,,!<(! A,,2 A,,2!<)! |!>(! E,6!>)! | %5
 A,2 | !>!G,3 A,!<(! E,2 D,2!<)! |!>(! (C,2 B,,2)!>)! A,,2!<(! C,2 | D,2!<)! D,2!>(! E,2 E,2!>)! | %9
 !fermata!A,,6 |] %10

